lib/brands/icons/phpstorm.svg

<svg xmlns="http://www.w3.org/2000/svg" fill="none" aria-hidden="true" viewBox="0 0 48 48"><g id="phpstorm-Icon"><g id="Group"><path id="Vector" fill="url(#paint0_linear_94_18357)" d="M6 12.9188L12.1312 6L24.675 8.7L26.3625 13.8187L25.125 22.7063L20.1381 20.1541L20.4 27.2625V33.45L9.43125 33.5625L6 12.9188Z"/><path id="Vector_2" fill="url(#paint1_linear_94_18357)" d="M17.3623 27.0937L18.0373 18.6L28.2186 8.13748L37.3311 9.82498L41.9998 21.4687L37.1061 26.3062L29.1748 25.0125L24.1686 30.1875L17.3623 27.0937Z"/><path id="Vector_3" fill="url(#paint2_linear_94_18357)" d="M28.2188 8.13748L13.5938 21.1312L16.4062 37.7812L28.5562 42L42 33.9562L28.2188 8.13748Z"/><path id="Vector_4" fill="black" d="M35.25 12.75H12.75V35.25H35.25V12.75Z"/><path id="Vector_5" fill="white" d="M14.8874 31.0312H23.3249V32.4375H14.8874V31.0312ZM14.7749 15.675H18.5999C20.8499 15.675 22.1999 16.9687 22.1999 18.8812C22.1999 21.0187 20.5124 22.1437 18.4312 22.1437H16.8562V24.9562H14.7749V15.675ZM18.4874 20.4562C19.469 20.4562 20.1187 19.7812 20.1187 18.9937C20.1187 18.0937 19.4999 17.5875 18.4312 17.5875H16.8562V20.4562H18.4874ZM22.7062 23.6625L23.9437 22.2C24.7874 22.875 25.6874 23.325 26.7562 23.325C27.5999 23.325 28.1062 22.9875 28.1062 22.425C28.1062 21.9187 27.7687 21.6375 26.1937 21.2437C24.2812 20.7375 23.0999 20.2312 23.0999 18.375V18.3187C23.0999 16.6312 24.4499 15.5062 26.3624 15.5062C27.624 15.5008 28.8513 15.9165 29.8499 16.6875L28.7812 18.2625C27.9374 17.7 27.1499 17.3625 26.3624 17.3625C25.5749 17.3625 25.1812 17.7 25.1812 18.2062C25.1812 18.825 25.5749 19.05 27.2062 19.4437C29.1187 19.95 30.1874 20.625 30.1874 22.2562C30.1874 24.1125 28.7812 25.1812 26.7562 25.1812C25.2634 25.2014 23.8176 24.6593 22.7062 23.6625Z"/></g></g><defs><linearGradient id="paint0_linear_94_18357" x1="6.27562" x2="28.7588" y1="45.7243" y2="18.9843" gradientUnits="userSpaceOnUse"><stop offset="0.02" stop-color="#765AF8"/><stop offset="0.38" stop-color="#B345F1"/><stop offset="0.76" stop-color="#FA3293"/><stop offset="0.94" stop-color="#FF318C"/></linearGradient><linearGradient id="paint1_linear_94_18357" x1="32.1504" x2="25.1465" y1="29.8612" y2="9.10553" gradientUnits="userSpaceOnUse"><stop offset="0.18" stop-color="#765AF8"/><stop offset="0.24" stop-color="#8655F6"/><stop offset="0.34" stop-color="#9F4CF3"/><stop offset="0.44" stop-color="#AE47F2"/><stop offset="0.52" stop-color="#B345F1"/></linearGradient><linearGradient id="paint2_linear_94_18357" x1="38.5266" x2="16.7818" y1="35.4975" y2="23.6647" gradientUnits="userSpaceOnUse"><stop offset="0.02" stop-color="#765AF8"/><stop offset="0.38" stop-color="#B345F1"/></linearGradient></defs></svg>

<svg xmlns="http://www.w3.org/2000/svg" fill="none" aria-hidden="true" viewBox="0 0 48 48"><path fill="url(#a)" d="M6 12.919 12.131 6l12.544 2.7 1.688 5.119-1.238 8.887-4.987-2.552.262 7.108v6.188l-10.969.112L6 12.92Z"/><path fill="url(#b)" d="m17.362 27.094.675-8.494L28.22 8.138l9.112 1.687L42 21.469l-4.894 4.837-7.931-1.294-5.006 5.175-6.807-3.093Z"/><path fill="url(#c)" d="M28.219 8.138 13.594 21.13l2.812 16.65L28.556 42 42 33.956 28.219 8.138Z"/><path fill="#000" d="M35.25 12.75h-22.5v22.5h22.5v-22.5Z"/><path fill="#fff" d="M14.887 31.031h8.438v1.407h-8.438V31.03Zm-.112-15.356H18.6c2.25 0 3.6 1.294 3.6 3.206 0 2.138-1.688 3.263-3.769 3.263h-1.575v2.812h-2.081v-9.281Zm3.713 4.781c.981 0 1.63-.675 1.63-1.462 0-.9-.618-1.407-1.687-1.407h-1.575v2.87h1.631Zm4.218 3.207 1.238-1.463c.844.675 1.744 1.125 2.812 1.125.844 0 1.35-.337 1.35-.9 0-.506-.337-.788-1.912-1.181-1.913-.506-3.094-1.013-3.094-2.869v-.056c0-1.688 1.35-2.813 3.262-2.813a5.667 5.667 0 0 1 3.488 1.181l-1.069 1.575c-.843-.562-1.631-.9-2.418-.9-.788 0-1.182.338-1.182.844 0 .619.394.844 2.025 1.238 1.913.506 2.982 1.181 2.982 2.812 0 1.857-1.407 2.925-3.432 2.925a5.945 5.945 0 0 1-4.05-1.518Z"/><defs><linearGradient id="a" x1="6.276" x2="28.759" y1="45.724" y2="18.984" gradientUnits="userSpaceOnUse"><stop offset=".02" stop-color="#765AF8"/><stop offset=".38" stop-color="#B345F1"/><stop offset=".76" stop-color="#FA3293"/><stop offset=".94" stop-color="#FF318C"/></linearGradient><linearGradient id="b" x1="32.151" x2="25.147" y1="29.861" y2="9.106" gradientUnits="userSpaceOnUse"><stop offset=".18" stop-color="#765AF8"/><stop offset=".24" stop-color="#8655F6"/><stop offset=".34" stop-color="#9F4CF3"/><stop offset=".44" stop-color="#AE47F2"/><stop offset=".52" stop-color="#B345F1"/></linearGradient><linearGradient id="c" x1="38.527" x2="16.782" y1="35.498" y2="23.665" gradientUnits="userSpaceOnUse"><stop offset=".02" stop-color="#765AF8"/><stop offset=".38" stop-color="#B345F1"/></linearGradient></defs></svg>
